;FLAVOR:Marlin
;TIME:4718
;Filament used: 3.51655m
;Layer height: 0.21875
;Generated with Cura_SteamEngine 3.2.1
M190 S40
M104 S205
M109 S205
M82 ;absolute extrusion mode
G21;(metric values)
G90;(absolute positioning)
M82;(set extruder to absolute mode)
M107;(start with the fan off)
G28;(Home the printer)
G92 E0;(Reset the extruder to 0)
G0 Z5 E5 F500;(Move up and prime the nozzle)
G0 X-1 Z0;(Move outside the printable area)
G1 Y60 E8 F500;(Draw a priming/wiping line to the rear)
G1 X-1;(Move a little closer to the print area)
G1 Y10 E16 F500;(draw more priming/wiping)
G1 E15 F250;(Small retract)
G92 E0;(Zero the extruder)
;LAYER_COUNT:32
;LAYER:0
M107
G0 F4320 X15.492 Y22.744 Z0.262
;TYPE:SKIRT
G1 F1800 X15.972 Y22.518 E0.02023
G1 X16.48 Y22.366 E0.04044
G1 X17.231 Y22.285 E0.06924
G1 X77.212 Y22.286 E2.35598
G1 X77.741 Y22.326 E2.37621
G1 X78.258 Y22.445 E2.39643
G1 X78.752 Y22.64 E2.41668
G1 X79.21 Y22.907 E2.43689
G1 X79.624 Y23.24 E2.45715
G1 X79.982 Y23.631 E2.47736
G1 X80.278 Y24.072 E2.49761
G1 X80.504 Y24.552 E2.51783
G1 X80.656 Y25.06 E2.53805
G1 X80.737 Y25.811 E2.56685
G1 X80.736 Y87.046 E4.9014
G1 X80.696 Y87.575 E4.92162
G1 X80.577 Y88.092 E4.94185
G1 X80.382 Y88.586 E4.9621
G1 X80.115 Y89.044 E4.98231
G1 X79.782 Y89.458 E5.00256
G1 X79.391 Y89.816 E5.02277
G1 X78.95 Y90.112 E5.04302
G1 X78.47 Y90.338 E5.06325
G1 X77.962 Y90.49 E5.08346
G1 X77.211 Y90.571 E5.11226
G1 X17.23 Y90.571 E7.399
G1 X16.701 Y90.531 E7.41923
G1 X16.184 Y90.412 E7.43945
G1 X15.69 Y90.217 E7.4597
G1 X15.232 Y89.95 E7.47991
G1 X14.818 Y89.617 E7.50017
G1 X14.46 Y89.226 E7.52038
G1 X14.164 Y88.785 E7.54063
G1 X13.938 Y88.305 E7.56086
G1 X13.786 Y87.797 E7.58107
G1 X13.705 Y87.046 E7.60987
G1 X13.706 Y25.81 E9.94446
G1 X13.746 Y25.281 E9.96468
G1 X13.865 Y24.764 E9.98491
G1 X14.06 Y24.27 E10.00516
G1 X14.327 Y23.812 E10.02537
G1 X14.66 Y23.398 E10.04562
G1 X14.929 Y23.152 E10.05952
G0 F1620 X15.051 Y23.04
G0 X15.492 Y22.744
G0 F4320 X15.823 Y22.964
G1 F2400 E10.08609
G1 F1800 X16.291 Y22.777 E10.10531
G1 X16.782 Y22.667 E10.12449
G1 X17.231 Y22.635 E10.14165
G1 X77.212 Y22.636 E12.42839
G1 X77.714 Y22.676 E12.44759
G1 X78.203 Y22.795 E12.46678
G1 X78.668 Y22.989 E12.48599
G1 X79.096 Y23.255 E12.5052
G1 X79.476 Y23.585 E12.52439
G1 X79.8 Y23.971 E12.5436
G1 X80.058 Y24.403 E12.56278
G1 X80.245 Y24.871 E12.582
G1 X80.355 Y25.362 E12.60118
G1 X80.387 Y25.811 E12.61834
G1 X80.386 Y87.046 E14.95289
G1 X80.346 Y87.548 E14.97209
G1 X80.227 Y88.037 E14.99128
G1 X80.033 Y88.502 E15.01049
G1 X79.767 Y88.93 E15.0297
G1 X79.437 Y89.31 E15.04889
G1 X79.051 Y89.634 E15.0681
G1 X78.619 Y89.892 E15.08728
G1 X78.151 Y90.079 E15.1065
G1 X77.66 Y90.189 E15.12568
G1 X77.211 Y90.221 E15.14284
G1 X17.23 Y90.221 E17.42958
G1 X16.728 Y90.181 E17.44878
G1 X16.239 Y90.062 E17.46797
G1 X15.774 Y89.868 E17.48718
G1 X15.346 Y89.602 E17.50639
G1 X14.966 Y89.272 E17.52558
G1 X14.643 Y88.886 E17.54476
G1 X14.384 Y88.454 E17.56397
G1 X14.197 Y87.986 E17.58318
G1 X14.087 Y87.495 E17.60236
G1 X14.055 Y87.046 E17.61953
G1 X14.056 Y25.81 E19.95411
G1 X14.096 Y25.308 E19.97331
G1 X14.215 Y24.819 E19.9925
G1 X14.409 Y24.354 E20.01171
G1 X14.675 Y23.926 E20.03092
G1 X15.005 Y23.546 E20.05011
G1 X15.243 Y23.346 E20.06196
G0 F1620 X15.391 Y23.222
G0 X15.823 Y22.964
G1 F2400 E17.56196
G0 F4320 X16.595 Y25.924
G0 X16.606 Y25.968
G0 X28.324 Y70.887
G0 X28.335 Y70.93
G0 X28.346 Y70.966
G0 X28.346 Y59.487
;TYPE:WALL-INNER
G1 F2400 E20.08853
G1 F1800 X28.346 Y59.312 E20.0952
G1 X28.346 Y56.936 E20.18579
G1 X28.559 Y56.301 E20.21132
G1 X28.402 Y55.835 E20.23007
G1 X28.346 Y55.667 E20.23682
G1 X28.346 Y55.574 E20.24037
G1 X28.524 Y55.574 E20.24514
G1 X35.921 Y55.573 E20.52714
G1 X36.096 Y55.573 E20.53382
G1 X36.096 Y55.748 E20.53813
G1 X36.096 Y55.939 E20.54541
G1 X36.202 Y56.301 E20.5598
G1 X36.096 Y56.662 E20.57414
G1 X36.096 Y59.486 E20.6818
G1 X48.171 Y59.487 E21.14215
G1 X48.346 Y59.487 E21.14883
G1 X48.346 Y59.312 E21.15314
G1 X48.346 Y56.936 E21.24373
G1 X48.559 Y56.301 E21.26926
G1 X48.402 Y55.835 E21.28801
G1 X48.346 Y55.667 E21.29476
G1 X48.346 Y55.574 E21.29831
G1 X48.524 Y55.574 E21.30308
G1 X55.921 Y55.573 E21.58508
G1 X56.096 Y55.573 E21.59176
G1 X56.096 Y55.748 E21.59607
G1 X56.096 Y55.939 E21.60335
G1 X56.202 Y56.301 E21.61774
G1 X56.096 Y56.662 E21.63208
G1 X56.096 Y59.486 E21.73974
G1 X68.171 Y59.487 E22.2001
G1 X68.346 Y59.487 E22.20677
G1 X68.346 Y59.312 E22.21108
G1 X68.346 Y56.936 E22.30167
G1 X68.559 Y56.301 E22.3272
G1 X68.402 Y55.835 E22.34595
G1 X68.346 Y55.667 E22.3527
G1 X68.346 Y55.574 E22.35625
G1 X68.524 Y55.574 E22.36102
G1 X76.171 Y55.573 E22.65256
G1 X76.346 Y55.573 E22.65923
G1 X76.346 Y55.748 E22.66354
G1 X76.346 Y86.18 E23.82375
G1 X18.096 Y86.18 E26.0445
G1 X18.096 Y59.661 E27.05552
G1 X18.096 Y59.486 E27.06219
G1 X18.271 Y59.486 E27.06651
G1 X28.171 Y59.487 E27.44394
G1 X28.346 Y59.487 E27.44826
G0 F4320 X21.346 Y69.426
G1 F1800 X21.346 Y76.176 E27.7056
G1 X73.096 Y76.176 E29.67854
G1 X73.096 Y69.426 E29.93588
G1 X22.043 Y69.426 E31.88224
G0 F1620 X21.346 Y69.426
G0 F4320 X21.696 Y69.776
G1 F2400 E31.90881
G1 F1800 X21.696 Y75.826 E32.13947
G1 X72.746 Y75.826 E34.08572
G1 X72.746 Y69.776 E34.31637
G1 X22.393 Y69.776 E36.23605
G0 F1620 X21.696 Y69.776
G0 F4320 X27.996 Y59.137
G1 F2400 E36.26262
G1 F1800 X27.996 Y58.962 E36.2693
G1 X27.996 Y56.879 E36.34871
G1 X28.19 Y56.301 E36.37195
G1 X27.996 Y55.725 E36.39512
G1 X27.996 Y55.224 E36.41423
G1 X36.271 Y55.223 E36.7297
G1 X36.446 Y55.223 E36.73638
G1 X36.446 Y55.398 E36.74069
G1 X36.446 Y55.889 E36.75941
G1 X36.567 Y56.301 E36.77578
G1 X36.446 Y56.712 E36.79212
G1 X36.446 Y59.136 E36.88453
G1 X47.821 Y59.137 E37.3182
G1 X47.996 Y59.137 E37.32487
G1 X47.996 Y58.962 E37.32919
G1 X47.996 Y56.879 E37.4086
G1 X48.19 Y56.301 E37.43184
G1 X47.996 Y55.725 E37.45502
G1 X47.996 Y55.224 E37.47412
G1 X56.271 Y55.223 E37.7896
G1 X56.446 Y55.223 E37.79627
G1 X56.446 Y55.398 E37.80058
G1 X56.446 Y55.889 E37.8193
G1 X56.567 Y56.301 E37.83567
G1 X56.446 Y56.712 E37.85201
G1 X56.446 Y59.136 E37.94442
G1 X67.821 Y59.137 E38.37809
G1 X67.996 Y59.137 E38.38476
G1 X67.996 Y58.962 E38.38908
G1 X67.996 Y56.879 E38.46849
G1 X68.19 Y56.301 E38.49173
G1 X67.996 Y55.725 E38.51491
G1 X67.996 Y55.224 E38.53401
G1 X76.521 Y55.223 E38.85902
G1 X76.696 Y55.223 E38.86569
G1 X76.696 Y55.398 E38.87001
G1 X76.696 Y86.53 E40.0569
G1 X17.746 Y86.53 E42.30433
G1 X17.746 Y59.311 E43.34204
G1 X17.746 Y59.136 E43.34871
G1 X17.921 Y59.136 E43.35303
G1 X27.821 Y59.137 E43.73046
G1 X27.996 Y59.137 E43.73478
G0 F4320 X27.671 Y58.812
;TYPE:WALL-OUTER
G1 F1800 X27.671 Y58.637 E43.74145
G1 X27.671 Y56.827 E43.81046
G1 X27.847 Y56.301 E43.8316
G1 X27.671 Y55.777 E43.85268
G1 X27.671 Y54.899 E43.88615
G1 X36.596 Y54.898 E44.22641
G1 X36.771 Y54.898 E44.23308
G1 X36.771 Y55.073 E44.2374
G1 X36.771 Y55.842 E44.26672
G1 X36.906 Y56.301 E44.28496
G1 X36.771 Y56.759 E44.30316
G1 X36.771 Y58.811 E44.38139
G1 X47.496 Y58.812 E44.79028
G1 X47.671 Y58.812 E44.79695
G1 X47.671 Y58.637 E44.80127
G1 X47.671 Y56.827 E44.87027
G1 X47.847 Y56.301 E44.89142
G1 X47.671 Y55.777 E44.91249
G1 X47.671 Y54.899 E44.94597
G1 X56.596 Y54.898 E45.28623
G1 X56.771 Y54.898 E45.2929
G1 X56.771 Y55.073 E45.29722
G1 X56.771 Y55.842 E45.32653
G1 X56.906 Y56.301 E45.34477
G1 X56.771 Y56.759 E45.36298
G1 X56.771 Y58.811 E45.44121
G1 X67.496 Y58.812 E45.85009
G1 X67.671 Y58.812 E45.85676
G1 X67.671 Y58.637 E45.86108
G1 X67.671 Y56.827 E45.93009
G1 X67.847 Y56.301 E45.95123
G1 X67.671 Y55.777 E45.97231
G1 X67.671 Y54.899 E46.00578
G1 X76.846 Y54.898 E46.35557
G1 X77.021 Y54.898 E46.36224
G1 X77.021 Y55.073 E46.36656
G1 X77.021 Y86.855 E47.57823
G1 X17.421 Y86.855 E49.85045
G1 X17.421 Y58.986 E50.91294
G1 X17.421 Y58.811 E50.91961
G1 X17.596 Y58.811 E50.92393
G1 X27.496 Y58.812 E51.30136
G1 X27.671 Y58.812 E51.30568
G0 F4320 X27.671 Y58.637
G0 X27.671 Y58.612
G1 F2400 E48.80568
G0 F4320 X16.556 Y58.612
G0 X16.594 Y58.685
G0 X16.614 Y58.724
G0 X22.842 Y70.889
G0 X22.861 Y70.928
G0 X22.874 Y70.954
G0 X22.021 Y70.101
G1 F2400 E51.30568
G1 F1800 X22.021 Y75.501 E51.51155
G1 X72.421 Y75.501 E53.43302
G1 X72.421 Y70.101 E53.63889
G1 X22.718 Y70.101 E55.53379
G0 F1620 X22.021 Y70.101
G0 F4320 X22.021 Y70.301
G0 X21.006 Y69.086
;TYPE:SKIN
G1 F2400 E55.56036
G1 F1800 X21.006 Y76.516 E55.84363
G1 X73.436 Y76.516 E57.84249
G1 X73.436 Y69.086 E58.12576
G1 X21.703 Y69.086 E60.09805
G0 F1620 X21.006 Y69.086
G1 F2400 E57.59805
G0 F4320 X22.874 Y70.954
G0 X22.86 Y70.93
G0 X22.839 Y70.891
G0 X16.615 Y59.929
G0 X16.593 Y59.89
G0 X16.556 Y59.826
G0 X18.436 Y59.826
G1 F2400 E60.12462
G1 F1800 X28.686 Y59.827 E60.5154
G1 X28.686 Y56.991 E60.62352
G1 X28.918 Y56.301 E60.65127
G1 X28.787 Y55.914 E60.66685
G1 X35.756 Y55.913 E60.93254
G1 X35.756 Y55.988 E60.93539
G1 X35.848 Y56.301 E60.94783
G1 X35.756 Y56.613 E60.96023
G1 X35.756 Y59.826 E61.08273
G1 X48.686 Y59.827 E61.57568
G1 X48.686 Y56.991 E61.6838
G1 X48.918 Y56.301 E61.71155
G1 X48.787 Y55.914 E61.72713
G1 X55.756 Y55.913 E61.99282
G1 X55.756 Y55.988 E61.99568
G1 X55.848 Y56.301 E62.00811
G1 X55.756 Y56.613 E62.02051
G1 X55.756 Y59.826 E62.14301
G1 X68.686 Y59.827 E62.63596
G1 X68.686 Y56.991 E62.74408
G1 X68.918 Y56.301 E62.77183
G1 X68.787 Y55.914 E62.78741
G1 X76.006 Y55.913 E63.06263
G1 X76.006 Y85.84 E64.20358
G1 X18.436 Y85.84 E66.3984
G1 X18.436 Y60.523 E67.3636
G0 F1620 X18.436 Y59.826
G1 F2400 E64.8636
G0 F4320 X16.556 Y59.826
G0 X16.556 Y85.68
G0 X18.859 Y85.68
G1 F2400 E67.39017
G1 F1800 X18.594 Y85.415 E67.40446
G0 F4320 X18.594 Y84.92
G1 F1800 X19.354 Y85.68 E67.44543
G1 X19.415 Y85.741
G0 F4320 X19.849 Y85.68
G1 F1800 X18.594 Y84.425 E67.5131
G1 X18.533 Y84.364
G0 F4320 X18.594 Y83.93
G1 F1800 X20.344 Y85.68 E67.60745
G1 X20.405 Y85.741
G0 F4320 X20.839 Y85.68
G1 F1800 X18.594 Y83.435 E67.72849
G1 X18.533 Y83.374
G0 F4320 X18.594 Y82.94
G1 F1800 X21.334 Y85.68 E67.87622
G1 X21.395 Y85.741
G0 F4320 X21.829 Y85.68
G1 F1800 X18.594 Y82.445 E68.05064
G1 X18.533 Y82.384
G0 F4320 X18.594 Y81.95
G1 F1800 X22.324 Y85.68 E68.25175
G1 X22.385 Y85.741
G0 F4320 X22.819 Y85.68
G1 F1800 X18.594 Y81.455 E68.47954
G1 X18.533 Y81.394
G0 F4320 X18.594 Y80.96
G1 F1800 X23.314 Y85.68 E68.73403
G1 X23.375 Y85.741
G0 F4320 X23.808 Y85.68
G1 F1800 X18.594 Y80.465 E69.01517
G1 X18.533 Y80.404
G0 F4320 X18.594 Y79.97
G1 F1800 X24.303 Y85.68 E69.32301
G1 X24.364 Y85.741
G0 F4320 X24.798 Y85.68
G1 F1800 X18.594 Y79.475 E69.65753
G1 X18.533 Y79.414
G0 F4320 X18.594 Y78.98
G1 F1800 X25.293 Y85.68 E70.01874
G1 X25.354 Y85.741
G0 F4320 X25.788 Y85.68
G1 F1800 X18.594 Y78.486 E70.40661
G1 X18.533 Y78.425
G0 F4320 X18.594 Y77.991
G1 F1800 X26.283 Y85.68 E70.82117
G1 X26.344 Y85.741
G0 F4320 X26.778 Y85.68
G1 F1800 X18.594 Y77.496 E71.26242
G1 X18.533 Y77.435
G0 F4320 X18.594 Y77.001
G1 F1800 X27.273 Y85.68 E71.73036
G1 X27.334 Y85.741
G0 F4320 X27.768 Y85.68
G1 F1800 X18.594 Y76.506 E72.22499
G1 X18.533 Y76.445
G0 F4320 X18.594 Y76.011
G1 F1800 X28.263 Y85.68 E72.7463
G1 X28.324 Y85.741
G0 F4320 X28.758 Y85.68
G1 F1800 X18.594 Y75.516 E73.2943
G1 X18.533 Y75.455
G0 F4320 X18.594 Y75.021
G1 F1800 X29.253 Y85.68 E73.869
G1 X29.314 Y85.741
G0 F4320 X29.748 Y85.68
G1 F1800 X18.594 Y74.526 E74.47038
G1 X18.533 Y74.465
G0 F4320 X18.594 Y74.031
G1 F1800 X20.848 Y76.285 E74.5919
G1 X20.909 Y76.346
G0 F4320 X20.848 Y75.79
G1 F1800 X18.594 Y73.536 E74.71343
G1 X18.533 Y73.475
G0 F4320 X18.594 Y73.041
G1 F1800 X20.848 Y75.295 E74.83496
G1 X20.909 Y75.356
G0 F4320 X20.848 Y74.8
G1 F1800 X18.594 Y72.546 E74.95648
G1 X18.533 Y72.485
G0 F4320 X18.594 Y72.051
G1 F1800 X20.848 Y74.305 E75.07801
G1 X20.909 Y74.366
G0 F4320 X20.848 Y73.81
G1 F1800 X18.594 Y71.556 E75.19954
G1 X18.533 Y71.495
G0 F4320 X18.594 Y71.061
G1 F1800 X20.848 Y73.315 E75.32106
G1 X20.909 Y73.376
G0 F4320 X20.848 Y72.82
G1 F1800 X18.594 Y70.566 E75.44259
G1 X18.533 Y70.505
G0 F4320 X18.594 Y70.071
G1 F1800 X20.848 Y72.325 E75.56412
G1 X20.909 Y72.386
G0 F4320 X20.848 Y71.83
G1 F1800 X18.594 Y69.576 E75.68564
G1 X18.533 Y69.515
G0 F4320 X18.594 Y69.081
G1 F1800 X20.848 Y71.335 E75.80717
G1 X20.909 Y71.396
G0 F4320 X20.848 Y70.84
G1 F1800 X18.594 Y68.586 E75.9287
G1 X18.533 Y68.525
G0 F4320 X18.594 Y68.091
G1 F1800 X20.848 Y70.345 E76.05023
G1 X20.909 Y70.406
G0 F4320 X20.848 Y69.85
G1 F1800 X18.594 Y67.596 E76.17175
G1 X18.533 Y67.535
G0 F4320 X18.594 Y67.101
G1 F1800 X20.848 Y69.355 E76.29328
G1 X20.909 Y69.416
G0 F4320 X20.914 Y68.927
G1 F1800 X18.594 Y66.606 E76.41839
G1 X18.533 Y66.545
G0 F4320 X18.594 Y66.111
G1 F1800 X21.409 Y68.927 E76.57019
G1 X21.47 Y68.988
G0 F4320 X21.904 Y68.927
G1 F1800 X18.594 Y65.616 E76.74868
G1 X18.533 Y65.555
G0 F4320 X18.594 Y65.121
G1 F1800 X22.399 Y68.927 E76.95386
G1 X22.46 Y68.988
G0 F4320 X22.894 Y68.927
G1 F1800 X18.594 Y64.626 E77.18573
G1 X18.533 Y64.565
G0 F4320 X18.594 Y64.131
G1 F1800 X23.389 Y68.927 E77.44428
G1 X23.45 Y68.988
G0 F4320 X23.884 Y68.927
G1 F1800 X18.594 Y63.636 E77.72952
G1 X18.533 Y63.575
G0 F4320 X18.594 Y63.141
G1 F1800 X24.379 Y68.927 E78.04145
G1 X24.44 Y68.988
G0 F4320 X24.874 Y68.927
G1 F1800 X18.594 Y62.646 E78.38007
G1 X18.533 Y62.585
G0 F4320 X18.594 Y62.151
G1 F1800 X25.369 Y68.927 E78.74538
G1 X25.43 Y68.988
G0 F4320 X25.864 Y68.927
G1 F1800 X18.594 Y61.656 E79.13738
G1 X18.533 Y61.595
G0 F4320 X18.594 Y61.161
G1 F1800 X26.359 Y68.927 E79.55606
G1 X26.42 Y68.988
G0 F4320 X26.854 Y68.927
G1 F1800 X18.594 Y60.666 E80.00144
G1 X18.533 Y60.605
G0 F4320 X18.594 Y60.171
G1 F1800 X27.349 Y68.927 E80.4735
G1 X27.41 Y68.988
G0 F4320 X27.844 Y68.927
G1 F1800 X18.901 Y59.984 E80.95567
G1 X18.84 Y59.923
G0 F4320 X19.396 Y59.984
G1 F1800 X28.339 Y68.927 E81.43784
G1 X28.4 Y68.988
G0 F4320 X28.834 Y68.927
G1 F1800 X19.891 Y59.984 E81.92002
G1 X19.83 Y59.923
G0 F4320 X20.386 Y59.984
G1 F1800 X29.329 Y68.927 E82.40219
G1 X29.39 Y68.988
G0 F4320 X29.824 Y68.927
G1 F1800 X20.881 Y59.984 E82.88436
G1 X20.82 Y59.923
G0 F4320 X21.376 Y59.984
G1 F1800 X30.319 Y68.927 E83.36653
G1 X30.38 Y68.988
G0 F4320 X30.814 Y68.927
G1 F1800 X21.871 Y59.984 E83.8487
G1 X21.81 Y59.923
G0 F4320 X22.366 Y59.984
G1 F1800 X31.309 Y68.927 E84.33087
G1 X31.37 Y68.988
G0 F4320 X31.804 Y68.927
G1 F1800 X22.861 Y59.984 E84.81304
G1 X22.8 Y59.923
G0 F4320 X23.356 Y59.984
G1 F1800 X32.299 Y68.927 E85.29522
G1 X32.36 Y68.988
G0 F4320 X32.794 Y68.927
G1 F1800 X23.851 Y59.984 E85.77739
G1 X23.79 Y59.923
G0 F4320 X24.346 Y59.984
G1 F1800 X33.289 Y68.927 E86.25956
G1 X33.35 Y68.988
G0 F4320 X33.784 Y68.927
G1 F1800 X24.841 Y59.984 E86.74173
G1 X24.78 Y59.923
G0 F4320 X25.336 Y59.984
G1 F1800 X34.279 Y68.927 E87.2239
G1 X34.34 Y68.988
G0 F4320 X34.774 Y68.927
G1 F1800 X25.831 Y59.984 E87.70607
G1 X25.77 Y59.923
G0 F4320 X26.326 Y59.984
G1 F1800 X35.269 Y68.927 E88.18825
G1 X35.33 Y68.988
G0 F4320 X35.764 Y68.927
G1 F1800 X26.821 Y59.984 E88.67042
G1 X26.76 Y59.923
G0 F4320 X27.316 Y59.984
G1 F1800 X36.259 Y68.927 E89.15259
G1 X36.32 Y68.988
G0 F4320 X36.753 Y68.927
G1 F1800 X27.811 Y59.984 E89.63473
G1 X27.75 Y59.923
G0 F4320 X28.306 Y59.984
G1 F1800 X37.248 Y68.927 E90.11688
G1 X37.309 Y68.988
G0 F4320 X37.743 Y68.927
G1 F1800 X28.801 Y59.984 E90.59902
G1 X28.74 Y59.923
G0 F4320 X28.843 Y59.532
G1 F1800 X38.238 Y68.927 E91.10556
G1 X38.299 Y68.988
G0 F4320 X38.733 Y68.927
G1 F1800 X28.843 Y59.037 E91.63879
G1 X28.782 Y58.976
G0 F4320 X28.843 Y58.542
G1 F1800 X39.228 Y68.927 E92.19871
G1 X39.289 Y68.988
G0 F4320 X39.723 Y68.927
G1 F1800 X28.843 Y58.047 E92.78532
G1 X28.782 Y57.986
G0 F4320 X28.843 Y57.552
G1 F1800 X40.218 Y68.927 E93.39862
G1 X40.279 Y68.988
G0 F4320 X40.713 Y68.927
G1 F1800 X28.843 Y57.057 E94.0386
G1 X28.782 Y56.996
G0 F4320 X28.958 Y56.676
G1 F1800 X41.208 Y68.927 E94.6991
G1 X41.269 Y68.988
G0 F4320 X41.703 Y68.927
G1 F1800 X29.082 Y56.306 E95.37957
G1 X29.021 Y56.245
G0 F4320 X29.342 Y56.07
G1 F1800 X42.198 Y68.927 E96.07275
G1 X42.259 Y68.988
G0 F4320 X42.693 Y68.927
G1 F1800 X29.837 Y56.07 E96.76592
G1 X29.776 Y56.009
G0 F4320 X30.332 Y56.07
G1 F1800 X43.188 Y68.927 E97.45909
G1 X43.249 Y68.988
G0 F4320 X43.683 Y68.927
