;FLAVOR:Marlin
;TIME:4645
;Filament used: 3.46329m
;Layer height: 0.21875
;Generated with Cura_SteamEngine 3.2.1
M190 S40
M104 S205
M109 S205
M82 ;absolute extrusion mode
G21;(metric values)
G90;(absolute positioning)
M82;(set extruder to absolute mode)
M107;(start with the fan off)
G28;(Home the printer)
G92 E0;(Reset the extruder to 0)
G0 Z5 E5 F500;(Move up and prime the nozzle)
G0 X-1 Z0;(Move outside the printable area)
G1 Y60 E8 F500;(Draw a priming/wiping line to the rear)
G1 X-1;(Move a little closer to the print area)
G1 Y10 E16 F500;(draw more priming/wiping)
G1 E15 F250;(Small retract)
G92 E0;(Zero the extruder)
;LAYER_COUNT:32
;LAYER:0
M107
G0 F4320 X17.761 Y20.332 Z0.262
;TYPE:SKIRT
G1 F1800 X18.202 Y20.036 E0.02025
G1 X18.682 Y19.81 E0.04048
G1 X19.19 Y19.658 E0.06069
G1 X19.941 Y19.577 E0.08949
G1 X79.922 Y19.578 E2.37623
G1 X80.451 Y19.618 E2.39646
G1 X80.968 Y19.737 E2.41668
G1 X81.462 Y19.932 E2.43693
G1 X81.92 Y20.199 E2.45714
G1 X82.334 Y20.532 E2.4774
G1 X82.692 Y20.923 E2.49761
G1 X82.988 Y21.364 E2.51786
G1 X83.214 Y21.844 E2.53808
G1 X83.366 Y22.352 E2.5583
G1 X83.447 Y23.103 E2.5871
G1 X83.446 Y84.084 E4.91196
G1 X83.406 Y84.613 E4.93219
G1 X83.287 Y85.13 E4.95241
G1 X83.092 Y85.624 E4.97266
G1 X82.825 Y86.082 E4.99287
G1 X82.492 Y86.496 E5.01313
G1 X82.101 Y86.854 E5.03334
G1 X81.66 Y87.15 E5.05359
G1 X81.18 Y87.376 E5.07381
G1 X80.672 Y87.528 E5.09403
G1 X79.921 Y87.609 E5.12283
G1 X19.94 Y87.609 E7.40957
G1 X19.411 Y87.569 E7.42979
G1 X18.894 Y87.45 E7.45002
G1 X18.4 Y87.255 E7.47027
G1 X17.942 Y86.988 E7.49048
G1 X17.528 Y86.655 E7.51073
G1 X17.17 Y86.264 E7.53095
G1 X16.874 Y85.823 E7.5512
G1 X16.648 Y85.343 E7.57142
G1 X16.496 Y84.835 E7.59164
G1 X16.415 Y84.084 E7.62043
G1 X16.416 Y23.102 E9.94534
G1 X16.456 Y22.573 E9.96556
G1 X16.575 Y22.056 E9.98579
G1 X16.77 Y21.562 E10.00604
G1 X17.037 Y21.104 E10.02625
G1 X17.266 Y20.82 E10.04016
G0 F1620 X17.37 Y20.69
G0 X17.761 Y20.332
G0 F4320 X18.101 Y20.514
G1 F2400 E10.06673
G1 F1800 X18.533 Y20.256 E10.08591
G1 X19.001 Y20.069 E10.10513
G1 X19.492 Y19.959 E10.12431
G1 X19.941 Y19.927 E10.14147
G1 X79.922 Y19.928 E12.42821
G1 X80.424 Y19.968 E12.44741
G1 X80.913 Y20.087 E12.4666
G1 X81.378 Y20.281 E12.48581
G1 X81.806 Y20.547 E12.50502
G1 X82.186 Y20.877 E12.52421
G1 X82.51 Y21.263 E12.54342
G1 X82.768 Y21.695 E12.5626
G1 X82.955 Y22.163 E12.58182
G1 X83.065 Y22.654 E12.601
G1 X83.097 Y23.103 E12.61816
G1 X83.096 Y84.084 E14.94303
G1 X83.056 Y84.586 E14.96223
G1 X82.937 Y85.075 E14.98141
G1 X82.743 Y85.54 E15.00062
G1 X82.477 Y85.968 E15.01984
G1 X82.147 Y86.348 E15.03902
G1 X81.761 Y86.672 E15.05824
G1 X81.329 Y86.93 E15.07742
G1 X80.861 Y87.117 E15.09663
G1 X80.37 Y87.227 E15.11582
G1 X79.921 Y87.259 E15.13298
G1 X19.94 Y87.259 E17.41972
G1 X19.438 Y87.219 E17.43892
G1 X18.949 Y87.1 E17.4581
G1 X18.484 Y86.906 E17.47731
G1 X18.056 Y86.64 E17.49653
G1 X17.676 Y86.31 E17.51571
G1 X17.353 Y85.924 E17.5349
G1 X17.094 Y85.492 E17.5541
G1 X16.907 Y85.024 E17.57332
G1 X16.797 Y84.533 E17.5925
G1 X16.765 Y84.084 E17.60966
G1 X16.766 Y23.102 E19.93457
G1 X16.806 Y22.6 E19.95377
G1 X16.925 Y22.111 E19.97295
G1 X17.119 Y21.646 E19.99216
G1 X17.385 Y21.218 E20.01137
G1 X17.588 Y20.984 E20.02318
G0 F1620 X17.715 Y20.838
G0 X18.101 Y20.514
G1 F2400 E17.52318
G0 F4320 X19.305 Y24.949
G0 X19.316 Y24.992
G0 X31.034 Y68.179
G0 X31.045 Y68.222
G0 X31.056 Y68.258
G0 X31.056 Y56.779
;TYPE:WALL-INNER
G1 F2400 E20.04976
G1 F1800 X31.056 Y56.604 E20.05643
G1 X31.056 Y54.228 E20.14701
G1 X31.269 Y53.593 E20.17255
G1 X31.112 Y53.127 E20.19129
G1 X31.056 Y52.959 E20.19805
G1 X31.056 Y52.866 E20.20159
G1 X31.234 Y52.866 E20.20636
G1 X38.631 Y52.865 E20.48837
G1 X38.806 Y52.865 E20.49504
G1 X38.806 Y53.04 E20.49936
G1 X38.806 Y53.231 E20.50664
G1 X38.912 Y53.593 E20.52102
G1 X38.806 Y53.954 E20.53536
G1 X38.806 Y56.778 E20.64303
G1 X50.881 Y56.779 E21.10338
G1 X51.056 Y56.779 E21.11005
G1 X51.056 Y56.604 E21.11437
G1 X51.056 Y54.228 E21.20495
G1 X51.269 Y53.593 E21.23049
G1 X51.112 Y53.127 E21.24923
G1 X51.056 Y52.959 E21.25599
G1 X51.056 Y52.866 E21.25953
G1 X51.234 Y52.866 E21.2643
G1 X58.631 Y52.865 E21.54631
G1 X58.806 Y52.865 E21.55298
G1 X58.806 Y53.04 E21.5573
G1 X58.806 Y53.231 E21.56458
G1 X58.912 Y53.593 E21.57896
G1 X58.806 Y53.954 E21.5933
G1 X58.806 Y56.778 E21.70097
G1 X70.881 Y56.779 E22.16132
G1 X71.056 Y56.779 E22.16799
G1 X71.056 Y56.604 E22.17231
G1 X71.056 Y54.228 E22.26289
G1 X71.269 Y53.593 E22.28843
G1 X71.112 Y53.127 E22.30717
G1 X71.056 Y52.959 E22.31393
G1 X71.056 Y52.866 E22.31747
G1 X71.234 Y52.866 E22.32224
G1 X78.881 Y52.865 E22.61378
G1 X79.056 Y52.865 E22.62045
G1 X79.056 Y53.04 E22.62477
G1 X79.056 Y83.218 E23.77529
G1 X20.806 Y83.218 E25.99604
G1 X20.806 Y56.953 E26.99737
G1 X20.806 Y56.778 E27.00405
G1 X20.981 Y56.778 E27.00836
G1 X30.881 Y56.779 E27.3858
G1 X31.056 Y56.779 E27.39011
G0 F4320 X24.056 Y66.718
G1 F1800 X24.056 Y73.468 E27.64745
G1 X75.806 Y73.468 E29.62039
G1 X75.806 Y66.718 E29.87773
G1 X24.753 Y66.718 E31.8241
G0 F1620 X24.056 Y66.718
G0 F4320 X24.406 Y67.068
G1 F2400 E31.85067
G1 F1800 X24.406 Y73.118 E32.08132
G1 X75.456 Y73.118 E34.02758
G1 X75.456 Y67.068 E34.25823
G1 X25.103 Y67.068 E36.17791
G0 F1620 X24.406 Y67.068
G0 F4320 X30.706 Y56.429
G1 F2400 E36.20448
G1 F1800 X30.706 Y56.254 E36.21115
G1 X30.706 Y54.171 E36.29057
G1 X30.9 Y53.593 E36.31381
G1 X30.706 Y53.017 E36.33698
G1 X30.706 Y52.516 E36.35608
G1 X38.981 Y52.515 E36.67156
G1 X39.156 Y52.515 E36.67823
G1 X39.156 Y52.69 E36.68255
G1 X39.156 Y53.181 E36.70127
G1 X39.277 Y53.593 E36.71764
G1 X39.156 Y54.004 E36.73398
G1 X39.156 Y56.428 E36.82639
G1 X50.531 Y56.429 E37.26005
G1 X50.706 Y56.429 E37.26673
G1 X50.706 Y56.254 E37.27104
G1 X50.706 Y54.171 E37.35046
G1 X50.9 Y53.593 E37.3737
G1 X50.706 Y53.017 E37.39687
G1 X50.706 Y52.516 E37.41597
G1 X58.981 Y52.515 E37.73145
G1 X59.156 Y52.515 E37.73812
G1 X59.156 Y52.69 E37.74244
G1 X59.156 Y53.181 E37.76116
G1 X59.277 Y53.593 E37.77753
G1 X59.156 Y54.004 E37.79387
G1 X59.156 Y56.428 E37.88628
G1 X70.531 Y56.429 E38.31994
G1 X70.706 Y56.429 E38.32662
G1 X70.706 Y56.254 E38.33093
G1 X70.706 Y54.171 E38.41035
G1 X70.9 Y53.593 E38.43359
G1 X70.706 Y53.017 E38.45676
G1 X70.706 Y52.516 E38.47586
G1 X79.231 Y52.515 E38.80087
G1 X79.406 Y52.515 E38.80755
G1 X79.406 Y52.69 E38.81186
G1 X79.406 Y83.568 E39.98907
G1 X20.456 Y83.568 E42.23651
G1 X20.456 Y56.603 E43.26453
G1 X20.456 Y56.428 E43.2712
G1 X20.631 Y56.428 E43.27552
G1 X30.531 Y56.429 E43.65295
G1 X30.706 Y56.429 E43.65727
G0 F4320 X30.381 Y56.104
;TYPE:WALL-OUTER
G1 F1800 X30.381 Y55.929 E43.66394
G1 X30.381 Y54.119 E43.73295
G1 X30.557 Y53.593 E43.75409
G1 X30.381 Y53.069 E43.77517
G1 X30.381 Y52.191 E43.80864
G1 X39.306 Y52.19 E44.1489
G1 X39.481 Y52.19 E44.15557
G1 X39.481 Y52.365 E44.15989
G1 X39.481 Y53.134 E44.18921
G1 X39.616 Y53.593 E44.20745
G1 X39.481 Y54.051 E44.22565
G1 X39.481 Y56.103 E44.30388
G1 X50.206 Y56.104 E44.71277
G1 X50.381 Y56.104 E44.71944
G1 X50.381 Y55.929 E44.72376
G1 X50.381 Y54.119 E44.79276
G1 X50.557 Y53.593 E44.81391
G1 X50.381 Y53.069 E44.83498
G1 X50.381 Y52.191 E44.86846
G1 X59.306 Y52.19 E45.20872
G1 X59.481 Y52.19 E45.21539
G1 X59.481 Y52.365 E45.21971
G1 X59.481 Y53.134 E45.24902
G1 X59.616 Y53.593 E45.26726
G1 X59.481 Y54.051 E45.28547
G1 X59.481 Y56.103 E45.3637
G1 X70.206 Y56.104 E45.77258
G1 X70.381 Y56.104 E45.77925
G1 X70.381 Y55.929 E45.78357
G1 X70.381 Y54.119 E45.85258
G1 X70.557 Y53.593 E45.87372
G1 X70.381 Y53.069 E45.8948
G1 X70.381 Y52.191 E45.92827
G1 X79.556 Y52.19 E46.27806
G1 X79.731 Y52.19 E46.28473
G1 X79.731 Y52.365 E46.28905
G1 X79.731 Y83.893 E47.49104
G1 X20.131 Y83.893 E49.76326
G1 X20.131 Y56.278 E50.81606
G1 X20.131 Y56.103 E50.82273
G1 X20.306 Y56.103 E50.82705
G1 X30.206 Y56.104 E51.20448
G1 X30.381 Y56.104 E51.2088
G0 F4320 X30.381 Y55.929
G0 X30.381 Y55.904
G1 F2400 E48.7088
G0 F4320 X19.266 Y55.904
G0 X19.304 Y55.978
G0 X19.324 Y56.017
G0 X25.552 Y68.182
G0 X25.571 Y68.221
G0 X25.584 Y68.246
G0 X24.731 Y67.393
G1 F2400 E51.2088
G1 F1800 X24.731 Y72.793 E51.41467
G1 X75.131 Y72.793 E53.33614
G1 X75.131 Y67.393 E53.54202
G1 X25.428 Y67.393 E55.43691
G0 F1620 X24.731 Y67.393
G0 F4320 X24.731 Y67.593
G0 X23.716 Y66.378
;TYPE:SKIN
G1 F2400 E55.46349
G1 F1800 X23.716 Y73.808 E55.74675
G1 X76.146 Y73.808 E57.74561
G1 X76.146 Y66.378 E58.02888
G1 X24.413 Y66.378 E60.00117
G0 F1620 X23.716 Y66.378
G1 F2400 E57.50117
G0 F4320 X25.584 Y68.246
G0 X25.571 Y68.222
G0 X25.549 Y68.183
G0 X19.325 Y57.221
G0 X19.304 Y57.182
G0 X19.266 Y57.118
G0 X21.146 Y57.118
G1 F2400 E60.02774
G1 F1800 X31.396 Y57.119 E60.41852
G1 X31.396 Y54.283 E60.52664
G1 X31.628 Y53.593 E60.55439
G1 X31.497 Y53.206 E60.56997
G1 X38.466 Y53.205 E60.83566
G1 X38.466 Y53.28 E60.83852
G1 X38.558 Y53.593 E60.85096
G1 X38.466 Y53.905 E60.86336
G1 X38.466 Y57.118 E60.98585
G1 X51.396 Y57.119 E61.4788
G1 X51.396 Y54.283 E61.58692
G1 X51.628 Y53.593 E61.61467
G1 X51.497 Y53.206 E61.63025
G1 X58.466 Y53.205 E61.89594
G1 X58.466 Y53.28 E61.8988
G1 X58.558 Y53.593 E61.91124
G1 X58.466 Y53.905 E61.92364
G1 X58.466 Y57.118 E62.04613
G1 X71.396 Y57.119 E62.53908
G1 X71.396 Y54.283 E62.6472
G1 X71.628 Y53.593 E62.67495
G1 X71.497 Y53.206 E62.69053
G1 X78.716 Y53.205 E62.96575
G1 X78.716 Y82.878 E64.09702
G1 X21.146 Y82.878 E66.29184
G1 X21.146 Y57.815 E67.24735
G0 F1620 X21.146 Y57.118
G1 F2400 E64.74735
G0 F4320 X19.266 Y57.118
G0 X19.278 Y84.746
G0 X21.836 Y84.758
G0 X21.836 Y82.718
G1 F2400 E67.27393
G1 F1800 X21.303 Y82.185 E67.30266
G1 X21.242 Y82.124
G0 F4320 X21.303 Y81.69
G1 F1800 X22.331 Y82.718 E67.35809
G1 X22.392 Y82.779
G0 F4320 X22.826 Y82.718
G1 F1800 X21.303 Y81.195 E67.4402
G1 X21.242 Y81.134
G0 F4320 X21.303 Y80.7
G1 F1800 X23.321 Y82.718 E67.54901
G1 X23.382 Y82.779
G0 F4320 X23.816 Y82.718
G1 F1800 X21.303 Y80.205 E67.6845
G1 X21.242 Y80.144
G0 F4320 X21.303 Y79.71
G1 F1800 X24.311 Y82.718 E67.84668
G1 X24.372 Y82.779
G0 F4320 X24.806 Y82.718
G1 F1800 X21.303 Y79.215 E68.03554
G1 X21.242 Y79.154
G0 F4320 X21.303 Y78.72
G1 F1800 X25.301 Y82.718 E68.2511
G1 X25.362 Y82.779
G0 F4320 X25.796 Y82.718
G1 F1800 X21.303 Y78.225 E68.49335
G1 X21.242 Y78.164
G0 F4320 X21.303 Y77.73
G1 F1800 X26.291 Y82.718 E68.76228
G1 X26.352 Y82.779
G0 F4320 X26.786 Y82.718
G1 F1800 X21.303 Y77.235 E69.0579
G1 X21.242 Y77.174
G0 F4320 X21.303 Y76.74
G1 F1800 X27.281 Y82.718 E69.38021
G1 X27.342 Y82.779
G0 F4320 X27.776 Y82.718
G1 F1800 X21.303 Y76.245 E69.72921
G1 X21.242 Y76.184
G0 F4320 X21.303 Y75.75
G1 F1800 X28.271 Y82.718 E70.1049
G1 X28.332 Y82.779
G0 F4320 X28.766 Y82.718
G1 F1800 X21.303 Y75.255 E70.50727
G1 X21.242 Y75.194
G0 F4320 X21.303 Y74.76
G1 F1800 X29.261 Y82.718 E70.93634
G1 X29.322 Y82.779
G0 F4320 X29.756 Y82.718
G1 F1800 X21.303 Y74.266 E71.39206
G1 X21.242 Y74.205
G0 F4320 X21.303 Y73.771
G1 F1800 X30.251 Y82.718 E71.87448
G1 X30.312 Y82.779
G0 F4320 X30.746 Y82.718
G1 F1800 X21.303 Y73.276 E72.38358
G1 X21.242 Y73.215
G0 F4320 X21.303 Y72.781
G1 F1800 X31.241 Y82.718 E72.91937
G1 X31.302 Y82.779
G0 F4320 X31.736 Y82.718
G1 F1800 X21.303 Y72.286 E73.48185
G1 X21.242 Y72.225
G0 F4320 X21.303 Y71.791
G1 F1800 X32.231 Y82.718 E74.07102
G1 X32.292 Y82.779
G0 F4320 X32.726 Y82.718
G1 F1800 X23.973 Y73.965 E74.54295
G1 X23.912 Y73.904
G0 F4320 X24.468 Y73.965
G1 F1800 X33.221 Y82.718 E75.01487
G1 X33.282 Y82.779
G0 F4320 X33.716 Y82.718
G1 F1800 X24.962 Y73.965 E75.48683
G1 X24.901 Y73.904
G0 F4320 X25.457 Y73.965
G1 F1800 X34.211 Y82.718 E75.95878
G1 X34.272 Y82.779
G0 F4320 X34.706 Y82.718
G1 F1800 X25.952 Y73.965 E76.43074
G1 X25.891 Y73.904
G0 F4320 X26.447 Y73.965
G1 F1800 X35.201 Y82.718 E76.90269
G1 X35.262 Y82.779
G0 F4320 X35.696 Y82.718
G1 F1800 X26.942 Y73.965 E77.37465
G1 X26.881 Y73.904
G0 F4320 X27.437 Y73.965
G1 F1800 X36.191 Y82.718 E77.8466
G1 X36.252 Y82.779
G0 F4320 X36.686 Y82.718
G1 F1800 X27.932 Y73.965 E78.31855
G1 X27.871 Y73.904
G0 F4320 X28.427 Y73.965
G1 F1800 X37.181 Y82.718 E78.79051
G1 X37.242 Y82.779
G0 F4320 X37.676 Y82.718
G1 F1800 X28.922 Y73.965 E79.26246
G1 X28.861 Y73.904
G0 F4320 X29.417 Y73.965
G1 F1800 X38.171 Y82.718 E79.73442
G1 X38.232 Y82.779
G0 F4320 X38.666 Y82.718
G1 F1800 X29.912 Y73.965 E80.20637
G1 X29.851 Y73.904
G0 F4320 X30.407 Y73.965
G1 F1800 X39.16 Y82.718 E80.6783
G1 X39.221 Y82.779
G0 F4320 X39.655 Y82.718
G1 F1800 X30.902 Y73.965 E81.15023
G1 X30.841 Y73.904
G0 F4320 X31.397 Y73.965
G1 F1800 X40.15 Y82.718 E81.62215
G1 X40.211 Y82.779
G0 F4320 X40.645 Y82.718
G1 F1800 X31.892 Y73.965 E82.09408
G1 X31.831 Y73.904
G0 F4320 X32.387 Y73.965
G1 F1800 X41.14 Y82.718 E82.56601
G1 X41.201 Y82.779
G0 F4320 X41.635 Y82.718
G1 F1800 X32.882 Y73.965 E83.03794
G1 X32.821 Y73.904
G0 F4320 X33.377 Y73.965
G1 F1800 X42.13 Y82.718 E83.50986
G1 X42.191 Y82.779
G0 F4320 X42.625 Y82.718
G1 F1800 X33.872 Y73.965 E83.98179
G1 X33.811 Y73.904
G0 F4320 X34.367 Y73.965
G1 F1800 X43.12 Y82.718 E84.45372
G1 X43.181 Y82.779
G0 F4320 X43.615 Y82.718
G1 F1800 X34.862 Y73.965 E84.92565
G1 X34.801 Y73.904
G0 F4320 X35.357 Y73.965
G1 F1800 X44.11 Y82.718 E85.39757
G1 X44.171 Y82.779
G0 F4320 X44.605 Y82.718
G1 F1800 X35.852 Y73.965 E85.8695
G1 X35.791 Y73.904
G0 F4320 X36.347 Y73.965
G1 F1800 X45.1 Y82.718 E86.34143
G1 X45.161 Y82.779
G0 F4320 X45.595 Y82.718
G1 F1800 X36.842 Y73.965 E86.81336
G1 X36.781 Y73.904
G0 F4320 X37.337 Y73.965
G1 F1800 X46.09 Y82.718 E87.28528
G1 X46.151 Y82.779
G0 F4320 X46.585 Y82.718
G1 F1800 X37.832 Y73.965 E87.75721
G1 X37.771 Y73.904
G0 F4320 X38.327 Y73.965
G1 F1800 X47.08 Y82.718 E88.22914
G1 X47.141 Y82.779
G0 F4320 X47.575 Y82.718
G1 F1800 X38.822 Y73.965 E88.70107
G1 X38.761 Y73.904
G0 F4320 X39.317 Y73.965
G1 F1800 X48.07 Y82.718 E89.17299
G1 X48.131 Y82.779
G0 F4320 X48.565 Y82.718
G1 F1800 X39.812 Y73.965 E89.64492
G1 X39.751 Y73.904
G0 F4320 X40.307 Y73.965
G1 F1800 X49.06 Y82.718 E90.11685
G1 X49.121 Y82.779
G0 F4320 X49.555 Y82.718
G1 F1800 X40.802 Y73.965 E90.58878
G1 X40.741 Y73.904
G0 F4320 X41.297 Y73.965
G1 F1800 X50.05 Y82.718 E91.0607
G1 X50.111 Y82.779
G0 F4320 X50.545 Y82.718
G1 F1800 X41.792 Y73.965 E91.53263
G1 X41.731 Y73.904
G0 F4320 X42.287 Y73.965
G1 F1800 X51.04 Y82.718 E92.00456
G1 X51.101 Y82.779
G0 F4320 X51.535 Y82.718
G1 F1800 X42.782 Y73.965 E92.47649
G1 X42.721 Y73.904
G0 F4320 X43.277 Y73.965
G1 F1800 X52.03 Y82.718 E92.94841
G1 X52.091 Y82.779
G0 F4320 X52.525 Y82.718
G1 F1800 X43.772 Y73.965 E93.42034
G1 X43.711 Y73.904
G0 F4320 X44.267 Y73.965
G1 F1800 X53.02 Y82.718 E93.89227
G1 X53.081 Y82.779
G0 F4320 X53.515 Y82.718
G1 F1800 X44.761 Y73.965 E94.36422
G1 X44.7 Y73.904
G0 F4320 X45.256 Y73.965
G1 F1800 X54.01 Y82.718 E94.83618
G1 X54.071 Y82.779
G0 F4320 X54.505 Y82.718
G1 F1800 X45.751 Y73.965 E95.30813
G1 X45.69 Y73.904
G0 F4320 X46.246 Y73.965
G1 F1800 X55 Y82.718 E95.78009
G1 X55.061 Y82.779
G0 F4320 X55.495 Y82.718
G1 F1800 X46.741 Y73.965 E96.25204
G1 X46.68 Y73.904
G0 F4320 X47.236 Y73.965
G1 F1800 X55.99 Y82.718 E96.724
G1 X56.051 Y82.779
G0 F4320 X56.485 Y82.718
G1 F1800 X47.731 Y73.965 E97.19595
G1 X47.67 Y73.904
G0 F4320 X48.226 Y73.965
G1 F1800 X56.98 Y82.718 E97.66791
G1 X57.041 Y82.779
G0 F4320 X57.475 Y82.718
G1 F1800 X48.721 Y73.965 E98.13986
G1 X48.66 Y73.904
G0 F4320 X49.216 Y73.965
G1 F1800 X57.97 Y82.718 E98.61181
G1 X58.031 Y82.779
G0 F4320 X58.465 Y82.718
G1 F1800 X49.711 Y73.965 E99.08377
G1 X49.65 Y73.904
G0 F4320 X50.206 Y73.965
G1 F1800 X58.959 Y82.718 E99.5557
G1 X59.02 Y82.779
G0 F4320 X59.454 Y82.718
G1 F1800 X50.701 Y73.965 E100.02762
G1 X50.64 Y73.904
G0 F4320 X51.196 Y73.965
G1 F1800 X59.949 Y82.718 E100.49955
G1 X60.01 Y82.779
G0 F4320 X60.444 Y82.718
G1 F1800 X51.691 Y73.965 E100.97148
G1 X51.63 Y73.904
G0 F4320 X52.186 Y73.965
G1 F1800 X60.939 Y82.718 E101.44341
G1 X61 Y82.779
G0 F4320 X61.434 Y82.718
G1 F1800 X52.681 Y73.965 E101.91533
G1 X52.62 Y73.904
G0 F4320 X53.176 Y73.965
G1 F1800 X61.929 Y82.718 E102.38726
G1 X61.99 Y82.779
G0 F4320 X62.424 Y82.718
G1 F1800 X53.671 Y73.965 E102.85919
G1 X53.61 Y73.904
G0 F4320 X54.166 Y73.965
G1 F1800 X62.919 Y82.718 E103.33112
